assets/img/svg/link-fill.svg

<svg width="18" height="19" viewBox="0 0 18 19" fill="none" xmlns="http://www.w3.org/2000/svg">
<circle cx="9" cy="9.5" r="9" fill="#EAEAEA"/>
<g clip-path="url(#clip0_275_2560)">
<path fill-rule="evenodd" clip-rule="evenodd" d="M6.79368 8.498C7.20762 8.07626 7.77075 7.83777 8.35974 7.83777C8.94872 7.83777 9.51186 8.07626 9.9258 8.498C10.097 8.67246 10.0944 8.9527 9.91996 9.12393C9.7455 9.29517 9.46526 9.29255 9.29402 9.11809C9.04473 8.86411 8.7085 8.72301 8.35974 8.72301C8.01098 8.72301 7.67475 8.86411 7.42546 9.11808M7.42546 9.11808L6.17493 10.3923C5.92539 10.6466 5.78368 10.9934 5.78368 11.3567C5.78368 11.7201 5.92536 12.0668 6.17493 12.3212C6.42423 12.5753 6.76052 12.7165 7.10936 12.7165C7.4582 12.7165 7.79449 12.5753 8.04379 12.3212L8.66887 11.6841C8.84007 11.5096 9.12031 11.5069 9.29481 11.6781C9.4693 11.8493 9.47197 12.1296 9.30078 12.304L8.67569 12.9412C8.26174 13.3631 7.69849 13.6017 7.10936 13.6017C6.52023 13.6017 5.95698 13.3631 5.54303 12.9412C5.12936 12.5195 4.89844 11.9494 4.89844 11.3567C4.89844 10.764 5.12936 10.1939 5.54303 9.7723L6.79368 8.498" fill="#A2A9AC"/>
<path fill-rule="evenodd" clip-rule="evenodd" d="M9.3246 6.05897C9.73855 5.63705 10.3018 5.39844 10.8909 5.39844C11.4801 5.39844 12.0433 5.63705 12.4573 6.05897C12.8709 6.4806 13.1019 7.0507 13.1019 7.6434C13.1019 8.23611 12.8709 8.8062 12.4573 9.22784L11.2066 10.5021C10.7927 10.9239 10.2295 11.1624 9.64055 11.1624C9.05156 11.1624 8.48843 10.9239 8.07449 10.5021C7.90325 10.3277 7.90587 10.0474 8.08033 9.87621C8.25479 9.70497 8.53503 9.70759 8.70626 9.88205C8.95555 10.136 9.29179 10.2771 9.64055 10.2771C9.98932 10.2771 10.3256 10.136 10.5748 9.88205L11.8254 8.60787C12.0749 8.3535 12.2166 8.00669 12.2166 7.6434C12.2166 7.28009 12.0749 6.93331 11.8254 6.67894C11.5761 6.42485 11.2398 6.28368 10.8909 6.28368C10.5421 6.28368 10.2058 6.42485 9.9565 6.67894L9.33142 7.31606C9.16022 7.49055 8.87998 7.49323 8.70548 7.32203C8.53099 7.15083 8.52831 6.87059 8.69951 6.69609L9.3246 6.05897Z" fill="#A2A9AC"/>
</g>
<defs>
<clipPath id="clip0_275_2560">
<rect width="9.14754" height="9.14754" fill="white" transform="translate(4.42627 4.92627)"/>
</clipPath>
</defs>
</svg>

<svg width="18" height="19" fill="none" xmlns="http://www.w3.org/2000/svg"><circle cx="9" cy="9.5" r="9" fill="#EAEAEA"/><g clip-path="url(#a)" fill-rule="evenodd" clip-rule="evenodd" fill="#A2A9AC"><path d="M6.794 8.498c.414-.422.977-.66 1.566-.66.589 0 1.152.238 1.566.66a.443.443 0 0 1-.632.62 1.309 1.309 0 0 0-.934-.395c-.349 0-.685.141-.935.395m0 0-1.25 1.274c-.25.255-.391.601-.391.965 0 .363.141.71.39.964.25.254.587.396.935.396.35 0 .685-.142.935-.396l.625-.637a.443.443 0 0 1 .632.62l-.625.637a2.193 2.193 0 0 1-3.133 0 2.263 2.263 0 0 1-.645-1.584c0-.593.231-1.163.645-1.585l1.25-1.274"/><path d="M9.325 6.059a2.191 2.191 0 0 1 3.132 0c.414.422.645.992.645 1.584 0 .593-.231 1.163-.645 1.585l-1.25 1.274c-.414.422-.978.66-1.566.66a2.194 2.194 0 0 1-1.567-.66.443.443 0 1 1 .632-.62c.25.254.586.395.935.395.348 0 .685-.141.934-.395l1.25-1.274c.25-.255.392-.601.392-.965 0-.363-.142-.71-.392-.964a1.309 1.309 0 0 0-.934-.395c-.349 0-.685.14-.934.395l-.626.637a.443.443 0 0 1-.631-.62l.625-.637Z"/></g><defs><clipPath id="a"><path fill="#fff" transform="translate(4.426 4.926)" d="M0 0h9.148v9.148H0z"/></clipPath></defs></svg>
